src/icons/budget-alert-light.svg

<svg height="58" viewBox="0 0 46 58" width="46" xmlns="http://www.w3.org/2000/svg"><path d="m116.877778 83c6.661111 4.4935806 11.122222 12.9415121 11.122222 22.706961 0 14.439972-9.838889 19.293039-22 19.293039-12.1611111 0-22-4.853067-22-19.293039 0-9.7654489 4.4611111-18.2133804 11.1222222-22.706961 3.5444445.5386305 7.2111108.8382026 10.8777778.8382026s7.333333-.2995721 10.877778-.8382026zm-9.228046 7.56h-2.457618c-.479535 0-.839186.362427-.839186.8456629v2.1745618c-3.17692.604045-5.3947703 3.5028566-5.0950609 6.8251043.2997095 3.202042 3.1769199 5.678626 6.5336659 5.678626h1.618431c.599419 0 1.138896.241014 1.558489.663845.419594.423436.599419 1.027481.539477 1.631526-.119883 1.026876-1.078954 1.871935-2.21785 1.871935h-2.157908c-.65936 0-1.198837-.483236-1.318721-1.087281-.119884-.361823-.419593-.663845-.839187-.663845h-2.517559c-.239768 0-.4795352.120809-.6593609.302022-.1798256.181214-.2397675.422832-.2397675.663846.2397675 2.597393 2.2777914 4.65175 4.7953514 4.953772v2.173958c0 .48384.359651.846267.839186.846267h2.457618c.479535 0 .839186-.362427.839186-.846267v-2.234362c2.757327-.604045 4.855293-2.839011 5.095061-5.436405.179826-1.812135-.419593-3.563865-1.618431-4.893368-1.198838-1.26789-2.937153-2.053149-4.675468-2.053149h-1.858198c-.599419 0-1.138896-.302022-1.558489-.724853-.419594-.422832-.599419-1.026877-.539477-1.6309218.119883-1.0274805 1.078954-1.8725394 2.21785-1.8725394h2.157908c.659361 0 1.198838.483236 1.318721 1.0872809.059942.361823.419594.6638454.839187.6638454h2.517559c.239768 0 .479535-.1202049.659361-.3020224.179826-.1806095.239768-.4222275.239768-.6638454-.239768-2.5973933-2.21785-4.6511461-4.795352-4.9531686v-2.1745618c0-.4832359-.359651-.8456629-.839186-.8456629zm7.375865-21.4810003c1.754229-.4177263 3.383737.8876685 2.88235 2.3497106l-2.381589 6.996916c-2.945651.3655105-6.141368.5743737-9.526358.5743737-3.384365 0-6.5807086-.2088632-9.5263589-.5743737l-2.3815895-6.9447002c-.5013873-1.4620421 1.1281213-2.8196527 2.8829768-2.3497106 5.8913006 1.514258 12.1586416 1.514258 18.0505686-.0522158z" fill="#fff2d1" fill-rule="evenodd" stroke="#ffdf87" transform="translate(-83 -68)"/></svg>

<?xml version="1.0" encoding="UTF-8"?>
<svg width="46px" height="58px" viewBox="0 0 46 58" version="1.1" xmlns="http://www.w3.org/2000/svg" xmlns:xlink="http://www.w3.org/1999/xlink">
    <title>0 budget</title>
    <g id="Marketing" stroke="none" stroke-width="1" fill="none" fill-rule="evenodd">
        <g id="Overview---1" transform="translate(-1532.000000, -209.000000)" fill="#FFF2D1" stroke="#FFDF87">
            <g id="Top-Cards" transform="translate(75.000000, 141.000000)">
                <g id="Budget" transform="translate(1374.000000, 0.000000)">
                    <path d="M116.877778,83 C123.538889,87.4935806 128,95.9415121 128,105.706961 C128,120.146933 118.161111,125 106,125 C93.8388889,125 84,120.146933 84,105.706961 C84,95.9415121 88.4611111,87.4935806 95.1222222,83 C98.6666667,83.5386305 102.333333,83.8382026 106,83.8382026 C109.666667,83.8382026 113.333333,83.5386305 116.877778,83 Z M107.649732,90.56 L105.192114,90.56 C104.712579,90.56 104.352928,90.922427 104.352928,91.4056629 L104.352928,91.4056629 L104.352928,93.5802247 C101.176008,94.1842697 98.9581577,97.0830813 99.2578671,100.405329 C99.5575766,103.607371 102.434787,106.083955 105.791533,106.083955 L105.791533,106.083955 L107.409964,106.083955 C108.009383,106.083955 108.54886,106.324969 108.968453,106.7478 C109.388047,107.171236 109.567872,107.775281 109.50793,108.379326 C109.388047,109.406202 108.428976,110.251261 107.29008,110.251261 L107.29008,110.251261 L105.132172,110.251261 C104.472812,110.251261 103.933335,109.768025 103.813451,109.16398 C103.693567,108.802157 103.393858,108.500135 102.974264,108.500135 L102.974264,108.500135 L100.456705,108.500135 C100.216937,108.500135 99.9771698,108.620944 99.7973441,108.802157 C99.6175185,108.983371 99.5575766,109.224989 99.5575766,109.466003 C99.7973441,112.063396 101.835368,114.117753 104.352928,114.419775 L104.352928,114.419775 L104.352928,116.593733 C104.352928,117.077573 104.712579,117.44 105.192114,117.44 L105.192114,117.44 L107.649732,117.44 C108.129267,117.44 108.488918,117.077573 108.488918,116.593733 L108.488918,116.593733 L108.488918,114.359371 C111.246245,113.755326 113.344211,111.52036 113.583979,108.922966 C113.763805,107.110831 113.164386,105.359101 111.965548,104.029598 C110.76671,102.761708 109.028395,101.976449 107.29008,101.976449 L107.29008,101.976449 L105.431882,101.976449 C104.832463,101.976449 104.292986,101.674427 103.873393,101.251596 C103.453799,100.828764 103.273974,100.224719 103.333916,99.6206742 C103.453799,98.5931937 104.41287,97.7481348 105.551766,97.7481348 L105.551766,97.7481348 L107.709674,97.7481348 C108.369035,97.7481348 108.908512,98.2313708 109.028395,98.8354157 C109.088337,99.1972387 109.447989,99.4992611 109.867582,99.4992611 L109.867582,99.4992611 L112.385141,99.4992611 C112.624909,99.4992611 112.864676,99.3790562 113.044502,99.1972387 C113.224328,99.0166292 113.28427,98.7750112 113.28427,98.5333933 C113.044502,95.936 111.06642,93.8822472 108.488918,93.5802247 L108.488918,93.5802247 L108.488918,91.4056629 C108.488918,90.922427 108.129267,90.56 107.649732,90.56 L107.649732,90.56 Z M115.025597,69.0789997 C116.779826,68.6612734 118.409334,69.9666682 117.907947,71.4287103 L117.907947,71.4287103 L115.526358,78.4256263 C112.580707,78.7911368 109.38499,79 106,79 C102.615635,79 99.4192914,78.7911368 96.4736411,78.4256263 L96.4736411,78.4256263 L94.0920516,71.4809261 C93.5906643,70.018884 95.2201729,68.6612734 96.9750284,69.1312155 C102.866329,70.6454735 109.13367,70.6454735 115.025597,69.0789997 Z" id="0-budget"></path>
                </g>
            </g>
        </g>
    </g>
</svg>
